!!! OTL: Berkowitz426
!!! Chapter: 1
!!! Section: IV
!!! Page: 106
!!! Mode: 
!!! Encoder: DJB
**kern
*staff1
*I"Piano
=1-
*clefG2
*k[]
*C:
*M12/8
4.r
4.r
4.r
8r
8r
8g/
=2
[4.ee\
8ee\L]
8ff\
8ff#\J
[4.gg\
8gg\L]
8ffn\
8ee\J
=3
4cc#\
[8dd\
8dd\L]
8ee\
8ff\J
4.a/
8b\
8r
8g/
=4
[4.ee\
8ee\L]
8dd\
8ee\J
[4.gg\
8gg\L]
8ff#\
8ee\J
=5
!!linebreak:original
4bb\
[8b\
8b\L]
8cc#\
8dd#\J
4.ee\
8r
8r
8ee\
=6
4ff\
[8dd\
8dd\L]
8dd\
8ee\J
8ff\L
8gg\
8aa\J
8.gg\L
16ee\K
8cc\J
=7
4bb-\
[8gg\
8gg\L]
8gg\
8gg#\J
4.aa\
8bb-\L
8aa\
8bb-\J
=8
!!linebreak:original
4ddd\
[8ccc\
8ccc\L]
8bb\
8aa\J
8gg\L
8ff#\
8gg\J
4bb\
8aa\
=9
8r
8gg\L
8ff\J
8ee\L
8ff\
8a\J
8b\L
8ee\
8dd\J
4cc\
8r
==
*-
